X:106
T:Spotted Pony
C:Traditional
M:4/4
L:1/8
Q:1/8=460
K:D
Bc|:d2a2 f4|fgfe dBA2|ABAG FGAB|
d2a2 e2Bc|d2a2 f4|fgfe dBA2|ABAG FGAB|1 dBAF D2Bc:|2 dBAF D4
|:D2FD E2GE|F2AF G2BG|A2dB cdef|gfed cBA2|
D2FD E2GE|F2AF G2BG|A2dB cdef|gfec d4:|
